!!!COM: Bartók, Béla
!!!OTL: String Quartet No. 6
!!!OMV: Movement 1
!!!example: 359
!!!work: Bar-50
**kern	**dynam	**kern	**dynam	**kern	**dynam	**kern	**dynam
*part4	*part4	*part3	*part3	*part2	*part2	*part1	*part1
*staff4	*	*staff3	*	*staff2	*	*staff1	*
*I"Violoncello	*	*I"Viola	*	*I"Violin II	*	*I"Violin I	*
*I'Vc.	*	*I'Vla.	*	*I'Vln. II	*	*I'Vln. I	*
*clefF4	*	*clefC3	*	*clefG2	*	*clefG2	*
*k[]	*	*k[]	*	*k[]	*	*k[]	*
*	*	*	*	*	*	*	*
*M6/8	*	*M6/8	*	*M6/8	*	*M6/8	*
*MM210	*	*MM210	*	*MM210	*	*MM210	*
=196	=196	=196	=196	=196	=196	=196	=196
4C#X	.	16%3A#XL	.	(8f#XL	.	2.r	.
.	.	.	.	8b	.	.	.
.	.	16%3eJ	.	.	.	.	.
8r	.	.	.	8a#XJ	<	.	.
4EE	.	16%3a#XL	.	8b#XL	.	.	.
.	.	.	.	8cc#X	.	.	.
.	.	16%3GnJ	.	.	.	.	.
8r	.	.	.	8dd#XJ)	[[	.	.
=197	=197	=197	=197	=197	=197	=197	=197
4r	.	16%3F#XL	.	8dd#X	sf	2.r	.
.	.	.	.	8r	.	.	.
.	.	16%3e#XJ	.	.	.	.	.
8r	.	.	.	8r	.	.	.
([4.FF#X	mf	16%3a#XL	.	4.r	.	.	.
.	.	16%3enJ	.	.	.	.	.
=198	=198	=198	=198	=198	=198	=198	=198
8FF#L]	.	16%3F#XL	.	2.r	.	2.r	.
8BB	.	.	.	.	.	.	.
.	.	16%3dnJ	.	.	.	.	.
8AA#XJ	.	.	.	.	.	.	.
8BB#XL	.	16%3a#XL	.	.	.	.	.
8C#X	.	.	.	.	.	.	.
.	.	16%3c#XJ	.	.	.	.	.
8D#XJ)	.	.	.	.	.	.	.
=199	=199	=199	=199	=199	=199	=199	=199
(8DnL	.	16%3F#XL	.	2.r	.	2.r	.
8E	.	.	.	.	.	.	.
.	.	16%3B#XJ	.	.	.	.	.
8D#XJ	.	.	.	.	.	.	.
8E#XL	.	16%3a#XL	.	.	.	.	.
8F#X	.	.	.	.	.	.	.
.	.	16%3dnJ	.	.	.	.	.
8G#XJ	.	.	.	.	.	.	.
=200	=200	=200	=200	=200	=200	=200	=200
8F##XL	.	16%3a#XL	.	2.r	.	2.r	.
8An	.	.	.	.	.	.	.
.	.	16%3e#XJ	.	.	.	.	.
8G#XJ	<	.	.	.	.	.	.
8BL	.	16%3GnL	.	.	.	.	.
8cn	.	.	.	.	.	.	.
.	.	16%3enJ	.	.	.	.	.
8dJ)	.	.	.	.	.	.	.
=201	=201	=201	=201	=201	=201	=201	=201
(8.d#X'L	.	16%3F#XL	.	4.B#X	< p	2.e#X 2.a#X	< p > ]]
8.c#X'J)	.	16%3e#XJ	.	.	.	.	.
([4.e^^	[	16%3a#XL	.	4.c#X	[ >	.	.
.	.	16%3c#XJ	.	.	.	.	.
=202	=202	=202	=202	=202	=202	=202	=202
8eL]	.	16%3g#XL	.	8c#X	.	8f#X 8a#X	.
8dn	.	.	.	8r	]	8r	]
.	.	16%3F#XJ	.	.	.	.	.
8c#XJ	.	.	.	8r	.	8r	.
8cnL	.	16%3enL	.	4.r	.	4.r	.
8d#X	.	.	.	.	.	.	.
.	.	16%3anJ	.	.	.	.	.
8BJ)	.	.	.	.	.	.	.
=203	=203	=203	=203	=203	=203	=203	=203
(8cnL	.	16%3F#XL	.	2.r	.	2.r	.
8B-X	.	.	.	.	.	.	.
.	.	16%3c#XJ	.	.	.	.	.
8AJ	.	.	.	.	.	.	.
8G#XL	.	16%3a#XL	.	.	.	.	.
8Bn	.	.	.	.	.	.	.
.	.	16%3eJ	.	.	.	.	.
8GnJ	.	.	.	.	.	.	.
=204	=204	=204	=204	=204	=204	=204	=204
8F#XL	.	16%3anL	.	2.r	.	2.r	.
8G#X	.	.	.	.	.	.	.
.	.	16%3d#XJ	.	.	.	.	.
8AJ)	.	.	.	.	.	.	.
(8EL	.	16%3c#XL	.	.	.	.	.
8D#X	.	.	.	.	.	.	.
.	.	16%3gnJ	.	.	.	.	.
8C#XJ	.	.	.	.	.	.	.
=205	=205	=205	=205	=205	=205	=205	=205
16%3Cn'L	.	16%3f#XL	.	2.r	.	4.r	.
16%3AA-X'J)	.	16%3B#XJ	.	.	.	.	.
16%3r	.	16%3e#XL	.	.	.	([4.b	mf
16%3AA-X	p	16%3d#XJ	.	.	.	.	.
=206	=206	=206	=206	=206	=206	=206	=206
16%3FL	.	4.dn	.	2.r	.	4.b_	.
16%3A-XJ	.	.	.	.	.	.	.
16%3BB-XL	.	4.r	.	.	.	8bL]	.
.	.	.	.	.	.	8dd#X	.
16%3fJ	.	.	.	.	.	.	.
.	.	.	.	.	.	8ddnJ	.
=207	=207	=207	=207	=207	=207	=207	=207
16%3A-XL	.	2.r	.	2.r	.	8cc#XL	.
.	.	.	.	.	.	8ee#X	.
16%3BB-XJ	.	.	.	.	.	.	.
.	.	.	.	.	.	8ff#XJ)	.
16%3dL	.	.	.	.	.	(8ff##XL	.
.	.	.	.	.	.	8aa#X	<
16%3FJ	.	.	.	.	.	.	.
.	.	.	.	.	.	8gg#XJ	.
=208	=208	=208	=208	=208	=208	=208	=208
16%3BB-XL	.	2.r	.	2.r	.	8aanL	.
.	.	.	.	.	.	8bb	.
16%3cJ	.	.	.	.	.	.	.
.	.	.	.	.	.	8cccJ)	.
16%3EL	.	.	.	.	.	8ccc#X	[ sf
.	.	.	.	.	.	8r	.
16%3BB-J	.	.	.	.	.	.	.
.	.	.	.	.	.	8r	.
=209	=209	=209	=209	=209	=209	=209	=209
16%3dL	.	2.r	.	4r	.	([4.B-X^	p
16%3A-XJ	.	.	.	.	.	.	.
.	.	.	.	8r	.	.	.
16%3BB-XL	.	.	.	([4.B-X^	p	8B-L]	.
.	.	.	.	.	.	8e	.
16%3fJ	.	.	.	.	.	.	.
.	.	.	.	.	.	8e-XJ	.
=210	=210	=210	=210	=210	=210	=210	=210
16%3A-XL	.	2.r	.	4.B-_	.	8dL	.
.	.	.	.	.	.	8f	.
16%3BB-XJ	.	.	.	.	.	.	.
.	.	.	.	.	.	8f#XJ	.
16%3e-XL	.	.	.	8B-L]	.	8gL	.
.	.	.	.	8f	.	8a	.
16%3A-J	.	.	.	.	.	.	.
.	.	.	.	8e-XJ	.	8bJ)	.
=211	=211	=211	=211	=211	=211	=211	=211
16%3dL	.	2.r	.	8b-X)	.	(8b-XL	.
.	.	.	.	8r	.	8dd-X	.
16%3FJ	.	.	.	.	.	.	.
.	.	.	.	8r	.	8ddnJ	.
16%3C-XL	.	.	.	(8aL	.	8ee-XL	.
.	.	.	.	8e-X	.	8ffn	.
16%3e-XJ	.	.	.	.	.	.	.
.	.	.	.	8fJ)	.	8ggJ	.
=212	=212	=212	=212	=212	=212	=212	=212
16%3A-XL	.	2.r	.	[2.B-X	.	8gg-XL	<
.	.	.	.	.	.	8aan	.
16%3DJ	.	.	.	.	.	.	.
.	.	.	.	.	.	8bb-XJ	.
16%3AAnL	.	.	.	.	.	8ccc-XL	.
.	.	.	.	.	.	8ddd-X	.
16%3GGJ	.	.	.	.	.	.	.
.	.	.	.	.	.	8eee-XJ)	.
=213	=213	=213	=213	=213	=213	=213	=213
16%3FF#XL	.	4r	.	4.B-]	.	([2.dddn	[[
16%3BJ	.	.	.	.	.	.	.
.	.	8r	.	.	.	.	.
16%3D#XL	.	([4.A^	mf	[4.Bn	.	.	.
16%3FF#J	.	.	.	.	.	.	.
=214	=214	=214	=214	=214	=214	=214	=214
16%3BL	.	4.A_	>	2.B_	.	8dddL]	.
.	.	.	.	.	.	8ccc#X	>
16%3D#XJ	.	.	.	.	.	.	.
.	.	.	.	.	.	8bbJ	.
16%3FF#XL	.	8AL]	.	.	.	8aa#XL	.
.	.	8d	] p	.	.	8cccn	.
16%3BJ	.	.	.	.	.	.	.
.	.	8c#XJ	.	.	.	8aanJ)	.
=215	=215	=215	=215	=215	=215	=215	=215
16%3F#XL	.	8cnL	.	2.B_	.	(8gg#XL	.
.	.	8e	.	.	.	8ggn	.
16%3BBJ	.	.	.	.	.	.	.
.	.	8fJ)	.	.	.	8ffnJ	.
16%3AL	.	(8gL	.	.	.	8eeL	.
.	.	8f#X	.	.	.	8ff#X	.
16%3BBJ	.	.	.	.	.	.	.
.	.	8aJ	.	.	.	8dd#XJ)	.
=216	=216	=216	=216	=216	=216	=216	=216
16%3FF#XL	.	8g#XL	.	2.B]	.	(8ffnL	.
.	.	8b	.	.	.	8ddn	.
16%3BBJ	.	.	.	.	.	.	.
.	.	8a#XJ)	.	.	.	8cc#XJ	.
16%3AL	.	(8ccnL	<	.	.	8ccnL	.
.	.	8bn	.	.	.	8dd#X	.
16%3FF#J	.	.	.	.	.	.	.
.	.	8cc#XJ)	.	.	.	8bJ)	]]
*	*	*clefG2	*	*	*	*	*
=217	=217	=217	=217	=217	=217	=217	=217
16%3GGL	.	8ddL	.	8c	.	[2.b-X	.
.	.	8ee	.	8r	.	.	.
16%3CJ	.	.	.	.	.	.	.
.	.	8ffJ	.	8r	.	.	.
16%3B-XL	.	([4.gg-X	[[	4.r	.	.	.
16%3D-XJ	.	.	.	.	.	.	.
=218	=218	=218	=218	=218	=218	=218	=218
16%3GGL	.	8gg-L]	.	([4.e^	mf	2.b-_	.
.	.	8ff	.	.	.	.	.
16%3CJ	.	.	.	.	.	.	.
.	.	8ee-XJ)	.	.	.	.	.
16%3B-XL	.	8ddL	.	8eL]	.	.	.
.	.	8ee-X	.	8b-X	.	.	.
16%3FJ	.	.	.	.	.	.	.
.	.	8dd-XJ	.	8aJ)	.	.	.
=	=	=	=	=	=	=	=
*-	*-	*-	*-	*-	*-	*-	*-
!!!system-decoration: [(s1,s2,s3,s4)]
!!!CDT: 1881/03/25-1945/09/26
!!!CBL: Sînnicolau Mare (Nagyszentmiklós), Romania (Hungary)
!!!CDL: New York, United States
!!!CNT: Hungarian
!!!AGN: Instrumental; Chamber
!!!MCN:
!!!MDT: 1941/01/20
!!!MGN: Kolisch Quartet
!!!MLC: New York, New York, United States of America
!!!MPD: 1941
!!!MPN:
!!!ODT: 1939
!!!PDT: 1941
!!!excerpt-start-measure: 196
!!!excerpt-end-measure: 218
!!!excerpt-start-time: 4:04
!!!excerpt-end-time: 4:23
!!!EEV: 2020/01/25
!!!ONB: Converted from MusicXML on 2020/01/25
